X: 8952
T: Currants For Cakes And Raisins For Everything
R: jig
M: 6/8
K: Dmajor
|:dfd cec|dfd AFE|DFA dAF|GEE E2G|
FDF AFA|daf gfe|dAF BAG|1 FGE D A/B/c:|2 FGE D2F||
|:EFG A2G|FDF AFD|EFG A2G|E=cE GFE|
FDF AFA|daf gfe|dAF BAG|1 FGE DAF:|2 FGE D A/B/c||

